X:40
T:The Moving Clouds
R:reel
C:Neilly Boyle
S:as played by Neilly Boyle, except for the 3rd part, which is
S:a more simplified (!) and less chaotic version from Martin McGinley
N:This is the original title (not "The Moving Cloud")
D:A 1945 performance by Neilly Boyle
Z:Larry Sanger
M:C|
L:1/8
K:C
CFAF DFAF|CFAF EFAF|G2BG dGBG|~G2Ac BGFD|
CFAF DFAF|CFAF EFAF|Gc~c2 defd|1 gfdc AGFD:|2 gfdc Bcde||
~f2ga fc~c2|Bcfc AGFD|Gg~g2 fgag|~g2fa gfde|
~f2ga fc~c2|fcfc AGFD|Gc~c2 defd|1 gfdc Bcde:|2 gfdc A^GAB||
c2ac caBc|acca Bcac|d2_bd d_b^cd|_bdd_b ^cd_bd|
c2ac caBc|acca Bcac|Bcac a_bag|1 fdcA [F3A3]B:|2 fdcA [F3A3]D||
